src/assets/img/svg/ilukool.svg

<?xml version="1.0" encoding="UTF-8" standalone="no"?>
<svg
   width="31.963852"
   height="32.005997"
   viewBox="0 0 31.963852 32.005997"
   fill="none"
   version="1.1"
   id="svg529"
   sodipodi:docname="ilukool.svg"
   inkscape:version="1.2.2 (b0a8486541, 2022-12-01)"
   xmlns:inkscape="http://www.inkscape.org/namespaces/inkscape"
   xmlns:sodipodi="http://sodipodi.sourceforge.net/DTD/sodipodi-0.dtd"
   xmlns="http://www.w3.org/2000/svg"
   xmlns:svg="http://www.w3.org/2000/svg">
  <defs
     id="defs533" />
  <sodipodi:namedview
     id="namedview531"
     pagecolor="#ffffff"
     bordercolor="#000000"
     borderopacity="0.25"
     inkscape:showpageshadow="2"
     inkscape:pageopacity="0.0"
     inkscape:pagecheckerboard="0"
     inkscape:deskcolor="#d1d1d1"
     showgrid="false"
     inkscape:zoom="17.458333"
     inkscape:cx="7.4463007"
     inkscape:cy="15.980907"
     inkscape:window-width="1920"
     inkscape:window-height="1008"
     inkscape:window-x="0"
     inkscape:window-y="0"
     inkscape:window-maximized="1"
     inkscape:current-layer="svg529" />
  <g
     id="g538"
     transform="translate(-8.0266746,-7.989989)">
    <path
       d="m 17.04,8 c 0,0 0.07,0.04 0.11,0.05 0.88,0.25 1.38,0.88 1.45,1.78 0.24,2.93 0.49,5.85 0.73,8.78 0.17,2.03 0.34,4.07 0.51,6.1 0.08,0.97 -0.1,1.88 -0.64,2.71 -0.05,0.08 -0.07,0.22 -0.05,0.31 0.29,1.2 0.59,2.4 0.9,3.6 0.02,0.09 0.12,0.21 0.2,0.22 1.35,0.23 2.25,1.04 2.86,2.2 0.67,1.27 0.83,2.61 0.35,3.99 -0.85,2.41 -3.5,3.01 -5.31,1.21 -1.41,-1.4 -1.88,-3.67 -1.12,-5.43 0.24,-0.55 0.59,-1.02 1.07,-1.4 0.07,-0.06 0.15,-0.19 0.14,-0.26 -0.23,-0.99 -0.49,-1.98 -0.74,-2.99 -1.09,0.44 -2.16,0.45 -3.25,0 -0.26,1.01 -0.51,2.01 -0.75,3.01 -0.01,0.06 0.03,0.17 0.09,0.2 1.46,1.03 1.82,3.23 1.19,5 -0.35,0.99 -0.93,1.81 -1.83,2.38 -1.54,0.98 -3.34998,0.57 -4.30998,-0.98 -1.31,-2.11 -0.43001,-5.4 1.76998,-6.56 0.32,-0.17 0.69,-0.23 1.02,-0.36 0.1,-0.04 0.24,-0.13 0.26,-0.22 0.32,-1.2 0.62,-2.4 0.91,-3.6 0.02,-0.09 0.02,-0.22 -0.03,-0.29 -0.66,-0.97 -0.74,-2.04 -0.63,-3.17 0.2,-2.15 0.37,-4.29 0.55,-6.44 0.18,-2.13 0.36,-4.25 0.54,-6.38 0.05,-0.55 0.09,-1.1 0.14,-1.65 0.07,-0.89 0.54,-1.48 1.4,-1.75 0.04,-0.01 0.07,-0.04 0.1,-0.06 0.79,0 1.58,0 2.38,0 z m -2,1.89 c -0.02,0.15 -0.04,0.29 -0.05,0.44 -0.15,1.87 -0.3,3.73 -0.46,5.6 -0.25,3.05 -0.52,6.1 -0.77,9.15 -0.11,1.41 1.23,2.54 2.61,2.2 1.03,-0.26 1.69,-1.12 1.61,-2.22 -0.13,-1.9 -0.3,-3.8 -0.46,-5.69 -0.18,-2.14 -0.36,-4.27 -0.54,-6.41 -0.09,-1.01 -0.17,-2.03 -0.26,-3.05 h -1.68 z m 6.83,26.53 c -0.06,-1.18 -0.35,-2.04 -1.12,-2.66 -0.74,-0.61 -1.57,-0.41 -1.97,0.47 -0.25,0.54 -0.29,1.1 -0.18,1.68 0.16,0.81 0.5,1.52 1.22,1.99 0.67,0.43 1.35,0.27 1.71,-0.43 0.19,-0.38 0.27,-0.82 0.34,-1.04 z M 13.2,35.15 c -0.04,-0.17 -0.08,-0.51 -0.2,-0.83 -0.37,-0.97 -1.24,-1.19 -2.04,-0.54 -0.89,0.72 -1.29999,2.21 -0.91,3.33 0.38,1.09 1.35,1.34 2.19,0.54 0.66,-0.63 0.94,-1.43 0.96,-2.51 z"
       fill="currentColor"
       id="path523" />
    <path
       d="m 16.8,24.8401 c 0,0.52 -0.43,0.92 -0.95,0.91 -0.51,0 -0.93,-0.45 -0.92,-0.95 0.01,-0.51 0.46,-0.93 0.96,-0.92 0.51,0.01 0.92,0.44 0.91,0.96 z"
       fill="currentColor"
       id="path525" />
    <path
       d="m 28.7,39.99 c -0.26,-0.12 -0.55,-0.21 -0.78,-0.37 -0.59,-0.4 -0.84,-0.99 -0.83,-1.69 0,-1.95 0,-3.89 0,-5.84 0,-3.5 0,-7 0,-10.5 0,-0.21 -0.08,-0.45 -0.2,-0.63 -1.49,-2.22 -2.98,-4.44 -4.5,-6.64 -0.35,-0.51 -0.37,-0.96 -0.04,-1.49 3.99,-6.46998 13.47,-6.44998 17.42,0.04 0.31,0.5 0.29,0.92 -0.04,1.41 -1.53,2.22 -3.03,4.46 -4.53,6.7 -0.11,0.17 -0.19,0.4 -0.19,0.6 0,5.33 0,10.66 0,16 0,1.42 -0.31,1.88 -1.6,2.41 h -4.69 z m 4.16,-19.97 c 0.42,0.07 0.72,0.06 0.97,-0.35 0.58,-0.94 1.22,-1.83 1.84,-2.75 0.76,-1.12 1.52,-2.24 2.28,-3.36 C 37.91,13.5 37.87,13.45 37.84,13.4 34.59,8.76002 27.62,8.71002 24.3,13.3 c -0.14,0.19 -0.15,0.31 -0.01,0.51 1.33,1.94 2.64,3.89 3.96,5.84 0.31,0.46 0.37,0.49 0.97,0.36 -0.18,-0.54 -0.36,-1.08 -0.53,-1.63 -0.05,-0.17 -0.09,-0.35 -0.08,-0.52 0.04,-0.43 0.38,-0.76 0.78,-0.81 0.46,-0.05 0.85,0.16 1.01,0.6 0.22,0.59 0.41,1.2 0.63,1.85 0.05,-0.14 0.08,-0.23 0.11,-0.31 0.17,-0.5 0.33,-1.01 0.51,-1.51 0.18,-0.5 0.69,-0.76 1.18,-0.6 0.47,0.15 0.73,0.65 0.6,1.15 -0.02,0.1 -0.07,0.2 -0.1,0.3 -0.16,0.49 -0.32,0.98 -0.49,1.49 z M 33.1,38.1 V 21.94 H 28.99 V 38.1 Z"
       fill="currentColor"
       id="path527" />
  </g>
</svg>

<svg width="48" height="48" viewBox="0 0 48 48" fill="none" xmlns="http://www.w3.org/2000/svg">
<path d="M17.04 8C17.04 8 17.11 8.04 17.15 8.05C18.03 8.3 18.53 8.93 18.6 9.83C18.84 12.76 19.09 15.68 19.33 18.61C19.5 20.64 19.67 22.68 19.84 24.71C19.92 25.68 19.74 26.59 19.2 27.42C19.15 27.5 19.13 27.64 19.15 27.73C19.44 28.93 19.74 30.13 20.05 31.33C20.07 31.42 20.17 31.54 20.25 31.55C21.6 31.78 22.5 32.59 23.11 33.75C23.78 35.02 23.94 36.36 23.46 37.74C22.61 40.15 19.96 40.75 18.15 38.95C16.74 37.55 16.27 35.28 17.03 33.52C17.27 32.97 17.62 32.5 18.1 32.12C18.17 32.06 18.25 31.93 18.24 31.86C18.01 30.87 17.75 29.88 17.5 28.87C16.41 29.31 15.34 29.32 14.25 28.87C13.99 29.88 13.74 30.88 13.5 31.88C13.49 31.94 13.53 32.05 13.59 32.08C15.05 33.11 15.41 35.31 14.78 37.08C14.43 38.07 13.85 38.89 12.95 39.46C11.41 40.44 9.60002 40.03 8.64002 38.48C7.33002 36.37 8.21001 33.08 10.41 31.92C10.73 31.75 11.1 31.69 11.43 31.56C11.53 31.52 11.67 31.43 11.69 31.34C12.01 30.14 12.31 28.94 12.6 27.74C12.62 27.65 12.62 27.52 12.57 27.45C11.91 26.48 11.83 25.41 11.94 24.28C12.14 22.13 12.31 19.99 12.49 17.84C12.67 15.71 12.85 13.59 13.03 11.46C13.08 10.91 13.12 10.36 13.17 9.81C13.24 8.92 13.71 8.33 14.57 8.06C14.61 8.05 14.64 8.02 14.67 8C15.46 8 16.25 8 17.05 8H17.04ZM15.04 9.89C15.02 10.04 15 10.18 14.99 10.33C14.84 12.2 14.69 14.06 14.53 15.93C14.28 18.98 14.01 22.03 13.76 25.08C13.65 26.49 14.99 27.62 16.37 27.28C17.4 27.02 18.06 26.16 17.98 25.06C17.85 23.16 17.68 21.26 17.52 19.37C17.34 17.23 17.16 15.1 16.98 12.96C16.89 11.95 16.81 10.93 16.72 9.91H15.04V9.89ZM21.87 36.42C21.81 35.24 21.52 34.38 20.75 33.76C20.01 33.15 19.18 33.35 18.78 34.23C18.53 34.77 18.49 35.33 18.6 35.91C18.76 36.72 19.1 37.43 19.82 37.9C20.49 38.33 21.17 38.17 21.53 37.47C21.72 37.09 21.8 36.65 21.87 36.43V36.42ZM13.2 35.15C13.16 34.98 13.12 34.64 13 34.32C12.63 33.35 11.76 33.13 10.96 33.78C10.07 34.5 9.66001 35.99 10.05 37.11C10.43 38.2 11.4 38.45 12.24 37.65C12.9 37.02 13.18 36.22 13.2 35.14V35.15Z" fill="currentColor"/>
<path d="M16.8 24.8401C16.8 25.3601 16.37 25.7601 15.85 25.7501C15.34 25.7501 14.92 25.3001 14.93 24.8001C14.94 24.2901 15.39 23.8701 15.89 23.8801C16.4 23.8901 16.81 24.3201 16.8 24.8401Z" fill="currentColor"/>
<path d="M28.7 39.99C28.44 39.87 28.15 39.78 27.92 39.62C27.33 39.22 27.08 38.63 27.09 37.93C27.09 35.98 27.09 34.04 27.09 32.09C27.09 28.59 27.09 25.09 27.09 21.59C27.09 21.38 27.01 21.14 26.89 20.96C25.4 18.74 23.91 16.52 22.39 14.32C22.04 13.81 22.02 13.36 22.35 12.83C26.34 6.36002 35.82 6.38002 39.77 12.87C40.08 13.37 40.06 13.79 39.73 14.28C38.2 16.5 36.7 18.74 35.2 20.98C35.09 21.15 35.01 21.38 35.01 21.58C35.01 26.91 35.01 32.24 35.01 37.58C35.01 39 34.7 39.46 33.41 39.99H28.72H28.7ZM32.86 20.02C33.28 20.09 33.58 20.08 33.83 19.67C34.41 18.73 35.05 17.84 35.67 16.92C36.43 15.8 37.19 14.68 37.95 13.56C37.91 13.5 37.87 13.45 37.84 13.4C34.59 8.76002 27.62 8.71002 24.3 13.3C24.16 13.49 24.15 13.61 24.29 13.81C25.62 15.75 26.93 17.7 28.25 19.65C28.56 20.11 28.62 20.14 29.22 20.01C29.04 19.47 28.86 18.93 28.69 18.38C28.64 18.21 28.6 18.03 28.61 17.86C28.65 17.43 28.99 17.1 29.39 17.05C29.85 17 30.24 17.21 30.4 17.65C30.62 18.24 30.81 18.85 31.03 19.5C31.08 19.36 31.11 19.27 31.14 19.19C31.31 18.69 31.47 18.18 31.65 17.68C31.83 17.18 32.34 16.92 32.83 17.08C33.3 17.23 33.56 17.73 33.43 18.23C33.41 18.33 33.36 18.43 33.33 18.53C33.17 19.02 33.01 19.51 32.84 20.02H32.86ZM33.1 38.1V21.94H28.99V38.1H33.1Z" fill="currentColor"/>
</svg>
